X: 31562
T: Padraigh O'Keefe's
R: slide
M: 12/8
K: Dmajor
|:e|f3 fed g3 g2f|ecA ecA f3 f2e|
dcd dcd efg e2d|cBc ABc d3 d2:|
|:A|FAA AFA B2B BAB|cBc ABc d2e a3|
FAA AFA B2B BAB|cBc ABc d3 d2:|

